X: 23662
T: Limestone Rock, The
R: reel
M: 4/4
K: Gmajor
dc|BGG2 AGFA|DGG2 A2dc|BGG2 AGAB|cAAG A2dc|
BGG2 AGFA|DGG2 A2dc|BGG2 ~A3B|BAAG A2 Bd||
e2dg eB~B2|eBdB A2Bd|eBB2 gBB2|BAAG A2Bd|
e2ed eaa2|gedB AcBA|GABd ~g3b|agef gedc||

